X:1
T:Title
%%score { ( 1 3 ) | ( 2 4 ) }
L:1/8
M:3/4
K:C
V:1 treble nm="Grand Piano"
V:3 treble 
V:2 bass 
V:4 bass 
V:1
 z2 z[Q:1/4=100] [EG] [EG][EG] | [FA]3 [EG] [_E^F][=EG] | E3 [Ec] [Fc][Gc] | [Ac]3 [Ad] [Ac][FA] | %4
[M:3/8] [EG]3 | [EG][EG][EA] |[M:3/4] [EB]3 [EB] [_EB][EB] | B4 G2 | G3 [Gd] [^Fd][Fd] | %9
[M:9/16] d4- d/ |[M:3/8] ddd |[M:3/4] e4 d2 | c4 z2 | c4 B2 |[M:9/16] A4- A/ |[M:3/8] GGG | %16
[M:3/4] [EG]3 [Ec] [Ge][Gc] | A4 c2 | %18
[M:27/32] c/4-c/4-c/4-c/4-c/4-c/4-c/4-c/4-c/-<c/ z/4 z/4 z/ [=Fd]/4-[Fd]/4-[Fd]/4-[Fd]/4-[Fd]/4-[Fd]/4-[Fd]/-<[Fd]/ z/4 | %19
[M:3/8] [Ec]3 |] %20
V:2
 z2 z [C,C] [C,C][C,C] | [C,C]3 [C,C] [C,C][C,C] | [G,C]3 [C,G,] [D,G,][E,C] | %3
 [F,C]3 [F,C] [F,C][F,C] |[M:3/8] [C,C]3 | [C,C][C,G,][C,G,] | %6
[M:3/4] [B,,G,]3 [B,,G,] [B,,^F,][B,,A,] | [E,G,E]4 [_E,_B,^C]2 | [D,B,D]3 [D,B,] [D,A,][D,C] | %9
[M:9/16][K:treble] [G,B,F]4- [G,B,F]/ |[M:3/8] FFF |[M:3/4] G4 F2[K:bass] | z A, G,E EE | E4 D2 | %14
[M:9/16] z F,/-F,/E,-E,3/2 |[M:3/8][K:treble] [G,B,F][G,B,F][G,B,F] | %16
[M:3/4][K:bass] [C,C]3 [C,G,] [C,C][E,C] | [F,CF]4 z2 | %18
[M:27/32] z/4 z/4 z/4 z/4 z/4 z/4 z/4 z/4 z/4 z/4 z/4 z/4 z/4 z/4 z/ G,/4-G,/4-G,/4-G,/4-G,/-<G,/ z/4 z/ | %19
[M:3/8] [C,G,]3 |] %20
V:3
 x6 | x6 | x6 | x6 |[M:3/8] x3 | x3 |[M:3/4] x6 | x6 | x6 |[M:9/16] x9/2 |[M:3/8] x3 | %11
[M:3/4] z B, B,B, z B, | [CE]F Ec cc | z A, A,A, z ^G, |[M:9/16] [A,C]D/-D/C-C3/2 |[M:3/8] x3 | %16
[M:3/4] x6 | x6 | %18
[M:27/32] z/4 z/4 z/ G/-<G/^F/-<F/[Fc]/-<[Fc]/ z/4 z/4 z/4 z/4 z/4 z/4 z/ [Ec]3/4 |[M:3/8] x3 |] %20
V:4
 x6 | x6 | x6 | x6 |[M:3/8] x3 | x3 |[M:3/4] x6 | x6 | x6 |[M:9/16][K:treble] x9/2 |[M:3/8] x3 | %11
[M:3/4] z G, z2 [G,B,][K:bass]G, | C,4 z2 | z E, E,E, [E,^G,]E, |[M:9/16] A,,4- A,,/ | %15
[M:3/8][K:treble] x3 |[M:3/4][K:bass] x6 | x6 | %18
[M:27/32] z/4 z/4 z/ [E,C]/-<[E,C]/[D,A,]/-<[D,A,]/[D,A,]/-<[D,A,]/B,/4-B,/4-B,/4-B,/4-B,/-<B,/-[C,-G,-B,]/[C,G,]/4 | %19
[M:3/8] x3 |] %20

